X: 0206
T: Captain Mackintosh - 8x40R
P: Captain Mackintosh
O: Gow's 2nd Col'n
B: Miss Milligan's Miscellany v.2 #0206
B: Originally Ours v.1 p.180 #MMM-0206
Z: 2019 John Chambers <jc:trillian.mit.edu>
M: 2/4
L: 1/8
R: march
K: A
%
E |:\
"A"A>B A>B | "E/A"AE EE | "A"A>B Ac | "E/A7"e2 ec | "D"fd d>f |\
"E/A"e>c cA |1 "Bm"B>c dB | "E7"G2 FE :|2 "Bm"B>A "E7"Bc | "A"A2 Ac/d/ ||
"A"e>f ef | "G#/E7"dB Bc | "E7"d>e dc | "A"cA Ac |\
"D"FB/d/ "E7"dB | "E/A7"Gc/d/ ec | "Bm"f<d "B7"B>A | "E7"G2 FE |
"A"A>B A>B | "E/A"AE EE | "A"A>B Ac | "E/A7"e2 ec | "D"f>d d>f |\
"E/A"e>c cA |1 "Bm"B>c dB | "E7"G2 FE :|2 "G#/E7"B>A Bc | "A"A2 A2 |]
